components/AnnouncementBar/logos/color-wish.svg

<svg width="303" height="85" viewBox="0 0 303 85" fill="none" xmlns="http://www.w3.org/2000/svg">
<g clip-path="url(#clip0_0:1)">
<path fill-rule="evenodd" clip-rule="evenodd" d="M134.701 17.8656C133.155 16.0479 132.575 13.823 132.964 11.1836C133.351 8.55131 134.587 6.321 136.667 4.50509C138.748 2.68562 141.102 1.77856 143.735 1.77856C146.365 1.77856 148.456 2.6874 150 4.50509C151.548 6.31922 152.126 8.54954 151.739 11.1836C151.35 13.823 150.116 16.0479 148.037 17.8656C145.953 19.6798 143.596 20.5904 140.967 20.5904C138.334 20.5904 136.246 19.6815 134.699 17.8656H134.701ZM113.713 26.9381C110.624 26.9381 107.751 29.4476 107.324 32.5121L104.185 55.3363C103.839 57.8227 102.644 59.9784 100.604 61.8067C98.5618 63.6351 96.261 64.5493 93.7106 64.5493C91.2279 64.5493 89.2161 63.6546 87.6805 61.8619C86.1396 60.0708 85.5492 57.8957 85.9024 55.3363L87.7965 41.4849C87.8535 38.721 85.7739 36.5583 82.906 36.5583H75.3974C72.5295 36.5583 69.8471 38.721 69.1408 41.4849L67.1843 55.3363C66.8312 57.8974 65.6327 60.0708 63.5959 61.8619C61.5591 63.6546 59.2994 64.5493 56.8203 64.5493C54.3376 64.5493 52.3116 63.6351 50.7421 61.8067C49.1708 59.9801 48.559 57.8227 48.9033 55.3363L53.1088 25.051C53.5547 22.1022 51.8033 19.0217 49.1315 17.7714C49.1315 17.7714 17.4598 4.60647 15.3963 3.75987C13.306 2.90617 10.9375 4.8199 10.1278 8.01063L8.19265 15.6282C7.38115 18.8189 9.20925 22.4472 12.2502 23.6904L33.4758 32.4516L30.2958 55.3363C29.2293 63.0108 31.0324 69.5772 35.7141 75.0232C40.3941 80.4727 46.5651 83.1939 54.2306 83.1939C61.3058 83.1939 67.7675 80.8195 73.6086 76.0654C78.2742 80.8195 84.1135 83.1939 91.1191 83.1939C98.7829 83.1939 105.71 80.4727 111.904 75.0232C118.097 69.5772 121.728 63.0108 122.794 55.3363C122.794 55.3363 126.121 31.1853 126.181 30.7637C126.47 28.6579 124.184 26.9398 121.097 26.9398H113.713V26.9381ZM144.826 26.6784H138.192C135.415 26.6784 132.832 28.9318 132.449 31.685C132.449 31.685 125.766 79.2704 125.735 79.5034C125.473 81.394 127.528 82.9413 130.303 82.9413H136.938C139.713 82.9413 142.295 80.6879 142.677 77.9347L149.392 30.1163C149.654 28.2257 147.6 26.6784 144.826 26.6784ZM258.567 32.9336C254.762 28.4569 249.613 26.2177 243.116 26.2177C236.617 26.2177 230.549 27.637 224.567 32.786L228.803 3.50554C229.071 1.57758 226.973 0 224.145 0H217.376C214.542 0 211.906 2.2979 211.519 5.1098L200.645 79.7026C200.378 81.6288 202.473 83.2081 205.305 83.2081H212.074C214.854 83.2081 217.439 80.992 217.902 78.2513H217.911L221.318 54.9877C222.006 50.287 223.815 46.7228 226.747 44.2986C229.677 41.8726 232.875 40.6596 236.333 40.6596C243.325 40.6596 246.148 45.2875 244.794 54.5395L241.165 79.6314C240.897 81.5594 242.995 83.137 245.827 83.137H252.592C255.428 83.137 258.06 80.8391 258.452 78.0272L262.635 50.8455C263.726 43.3826 262.371 37.4102 258.568 32.9336H258.567ZM195.689 41.179L198.854 37.1488C200.196 35.4414 200.228 32.8144 198.935 31.0181C198.368 30.0452 196.72 29.1008 195.214 28.2898L195.045 28.1973C190.283 25.6219 185.603 24.6508 179.4 24.9532C172.662 25.2822 166.912 27.2653 162.312 30.8491C157.675 34.4596 155.053 39.0323 154.525 44.4373C153.988 49.9224 155.845 54.0166 160.038 56.608C162.03 57.8636 163.851 58.8205 165.449 59.4537C167.036 60.0886 169.373 60.8321 172.396 61.668C175.332 62.4843 177.568 63.411 179.038 64.4123C180.386 65.3372 180.989 66.3278 180.878 67.4412C180.766 68.6044 180.163 69.5452 179.04 70.3153C177.871 71.1157 176.311 71.571 174.406 71.6635C169.255 71.9143 164.409 70.7155 160.004 68.0993L156.735 66.294C156.195 65.9999 155.583 65.8619 154.969 65.8956C153.958 65.9385 153.017 66.4208 152.394 67.2153L147.692 73.4296C147.211 74.0663 147.022 74.8293 147.157 75.5763C147.288 76.302 147.707 76.928 148.342 77.3513C149.881 78.5607 151.481 79.6154 153.1 80.4887C155.251 81.6649 157.524 82.6065 159.877 83.2971C164.318 84.6061 168.725 85.1645 172.968 84.9582C179.364 84.6452 184.889 82.6354 189.395 78.9823C193.93 75.306 196.511 70.5252 197.076 64.7734C197.649 58.9361 195.97 54.7956 192.086 52.4622C190.096 51.2848 188.337 50.4133 186.857 49.8726C185.385 49.339 182.897 48.5849 179.46 47.6352C176.065 46.6996 173.628 45.8424 172.214 45.0918C170.969 44.4302 170.445 43.5445 170.566 42.3048C170.793 39.9802 173.188 38.6908 177.679 38.4738C181.29 38.2959 184.914 39.1283 188.432 40.9335C189.154 41.3302 189.951 41.805 190.679 42.271C191.583 42.7744 192.279 42.9753 192.942 42.9415C193.919 42.8953 194.767 42.3528 195.689 41.1808V41.179Z" fill="#2FB7EC"/>
</g>
<defs>
<clipPath id="clip0_0:1">
<rect width="255" height="85" fill="white" transform="translate(8)"/>
</clipPath>
</defs>
</svg>

<svg xmlns="http://www.w3.org/2000/svg" width="303" height="85" fill="none" viewBox="0 0 303 85">
  <path fill="#2FB7EC" fill-rule="evenodd" d="M134.701 17.866c-1.546-1.818-2.126-4.043-1.737-6.682.387-2.633 1.623-4.863 3.703-6.679 2.081-1.82 4.435-2.726 7.068-2.726 2.63 0 4.721.908 6.265 2.726 1.548 1.814 2.126 4.045 1.739 6.679-.389 2.639-1.623 4.864-3.702 6.682-2.084 1.814-4.441 2.724-7.07 2.724-2.633 0-4.721-.909-6.268-2.724h.002Zm-20.988 9.072c-3.089 0-5.962 2.51-6.389 5.574l-3.139 22.824c-.346 2.487-1.541 4.642-3.581 6.47-2.042 1.83-4.343 2.743-6.893 2.743-2.483 0-4.495-.894-6.03-2.687-1.541-1.791-2.132-3.966-1.779-6.526l1.894-13.851c.057-2.764-2.022-4.927-4.89-4.927h-7.509c-2.868 0-5.55 2.163-6.256 4.927l-1.957 13.851c-.353 2.561-1.551 4.735-3.588 6.526-2.037 1.793-4.297 2.687-6.776 2.687-2.482 0-4.508-.914-6.078-2.742-1.571-1.827-2.183-3.984-1.839-6.47L53.11 25.05c.446-2.949-1.306-6.03-3.977-7.28 0 0-31.672-13.165-33.736-14.011-2.09-.854-4.459 1.06-5.268 4.25l-1.935 7.618c-.812 3.19 1.016 6.82 4.057 8.062l21.226 8.762-3.18 22.884c-1.067 7.675.736 14.241 5.418 19.687 4.68 5.45 10.851 8.17 18.517 8.17 7.075 0 13.536-2.373 19.378-7.128 4.665 4.755 10.505 7.129 17.51 7.129 7.664 0 14.591-2.721 20.785-8.17 6.193-5.447 9.824-12.013 10.89-19.688 0 0 3.327-24.15 3.387-24.572.289-2.106-1.997-3.824-5.084-3.824h-7.384v-.002Zm31.113-.26h-6.634c-2.777 0-5.36 2.254-5.743 5.007 0 0-6.683 47.585-6.714 47.818-.262 1.891 1.793 3.438 4.568 3.438h6.635c2.775 0 5.357-2.253 5.739-5.006l6.715-47.819c.262-1.89-1.792-3.438-4.566-3.438Zm113.741 6.256c-3.805-4.477-8.954-6.716-15.451-6.716-6.499 0-12.567 1.419-18.549 6.568l4.236-29.28c.268-1.928-1.83-3.506-4.658-3.506h-6.769c-2.834 0-5.47 2.298-5.857 5.11l-10.874 74.593c-.267 1.926 1.828 3.505 4.66 3.505h6.769c2.78 0 5.365-2.216 5.828-4.957h.009l3.407-23.263c.688-4.701 2.497-8.265 5.429-10.69 2.93-2.425 6.128-3.638 9.586-3.638 6.992 0 9.815 4.628 8.461 13.88l-3.629 25.091c-.268 1.928 1.83 3.506 4.662 3.506h6.765c2.836 0 5.468-2.298 5.86-5.11l4.183-27.181c1.091-7.463-.264-13.436-4.067-17.912h-.001Zm-62.878 8.245 3.165-4.03c1.342-1.708 1.374-4.335.081-6.13-.567-.974-2.215-1.918-3.721-2.73l-.169-.092c-4.762-2.575-9.442-3.546-15.645-3.244-6.738.33-12.488 2.312-17.088 5.896-4.637 3.61-7.259 8.183-7.787 13.588-.537 5.485 1.32 9.58 5.513 12.171 1.992 1.256 3.813 2.213 5.411 2.846 1.587.635 3.924 1.378 6.947 2.214 2.936.816 5.172 1.743 6.642 2.744 1.348.925 1.951 1.916 1.84 3.03-.112 1.162-.715 2.103-1.838 2.873-1.169.8-2.729 1.256-4.634 1.349-5.151.25-9.997-.948-14.402-3.565l-3.269-1.805a3.314 3.314 0 0 0-1.766-.398 3.458 3.458 0 0 0-2.575 1.32l-4.702 6.214c-.481.636-.67 1.4-.535 2.146.131.726.55 1.352 1.185 1.775a33.406 33.406 0 0 0 4.758 3.138 34.206 34.206 0 0 0 6.777 2.808c4.441 1.31 8.848 1.868 13.091 1.661 6.396-.313 11.921-2.323 16.427-5.976 4.535-3.676 7.116-8.457 7.681-14.209.573-5.837-1.106-9.977-4.99-12.31-1.99-1.178-3.749-2.05-5.229-2.59-1.472-.534-3.96-1.288-7.397-2.238-3.395-.935-5.832-1.793-7.246-2.543-1.245-.662-1.769-1.547-1.648-2.787.227-2.325 2.622-3.614 7.113-3.831 3.611-.178 7.235.654 10.753 2.46.722.396 1.519.871 2.247 1.337.904.503 1.6.704 2.263.67.977-.046 1.825-.588 2.747-1.76v-.002Z" clip-rule="evenodd"/>
</svg>
